fs/video_person_sparkle_20_filled.svg

<svg viewBox="0 0 20 20" fill="none" xmlns="http://www.w3.org/2000/svg" height="1em" width="1em">
  <path d="M3.75868 4.00005H16.4908C16.6887 3.99846 16.8849 4.03609 17.0682 4.11077C17.2514 4.18544 17.4181 4.29568 17.5586 4.43512C17.6991 4.57457 17.8106 4.74046 17.8867 4.92324C17.9628 5.10601 18.002 5.30205 18.002 5.50005V14.5C18.002 14.8979 17.844 15.2794 17.5629 15.5607C17.2817 15.842 16.9004 16 16.5028 16H3.50982C3.11221 16 2.73089 15.842 2.44973 15.5607C2.16858 15.2794 2.01063 14.8979 2.01063 14.5V9.88705C2.16793 9.95791 2.33789 9.99634 2.51036 10C2.68224 9.99847 2.85209 9.96278 3.01009 9.89505V14.5C3.01009 14.6327 3.06274 14.7598 3.15645 14.8536C3.25017 14.9474 3.37728 15 3.50982 15H6.00846V13.5C6.00846 13.1022 6.16641 12.7207 6.44756 12.4394C6.72872 12.1581 7.11004 12 7.50765 12H12.5049C12.9025 12 13.2839 12.1581 13.565 12.4394C13.8462 12.7207 14.0041 13.1022 14.0041 13.5V15H16.5028C16.6353 15 16.7624 14.9474 16.8561 14.8536C16.9498 14.7598 17.0025 14.6327 17.0025 14.5V5.50005C17.0025 5.36744 16.9498 5.24026 16.8561 5.14649C16.7624 5.05273 16.6353 5.00005 16.5028 5.00005H4.30938C4.23485 4.9731 4.16676 4.93087 4.10949 4.87605C4.04605 4.8131 3.99843 4.73599 3.97057 4.65105L3.75868 4.00005ZM11.7614 6.73229C12.23 7.20114 12.4932 7.83702 12.4932 8.50006C12.4932 9.1631 12.23 9.79899 11.7614 10.2678C11.2928 10.7367 10.6573 11.0001 9.99458 11.0001C9.33189 11.0001 8.69635 10.7367 8.22777 10.2678C7.75918 9.79899 7.49593 9.1631 7.49593 8.50006C7.49593 7.83702 7.75918 7.20114 8.22777 6.73229C8.69635 6.26345 9.33189 6.00006 9.99458 6.00006C10.6573 6.00006 11.2928 6.26345 11.7614 6.73229ZM4.11876 9.32808C4.0838 9.34082 4.0535 9.36382 4.03181 9.39408C4.01091 9.42334 3.99909 9.45813 3.99783 9.49408C3.99789 9.53177 4.00978 9.5685 4.03181 9.59908C4.05322 9.6296 4.08362 9.65267 4.11876 9.66508L4.57851 9.81408C4.71816 9.86117 4.84505 9.93988 4.94932 10.0441C5.05328 10.1482 5.13134 10.2753 5.17719 10.4151L5.32611 10.8741C5.33882 10.9096 5.36222 10.9404 5.39307 10.9621C5.42224 10.983 5.45712 10.9945 5.49302 10.9951C5.52889 10.9944 5.56371 10.9829 5.59296 10.9621C5.62383 10.9406 5.64697 10.9097 5.65893 10.8741L5.80885 10.4151C5.85495 10.2757 5.93298 10.149 6.03672 10.0451C6.14098 9.9411 6.2679 9.86272 6.40752 9.81608L6.86627 9.66708C6.90192 9.65511 6.93276 9.63196 6.95423 9.60108C6.97609 9.57047 6.98764 9.53369 6.98721 9.49608C6.98667 9.46016 6.97516 9.42526 6.95423 9.39608C6.93973 9.37536 6.92099 9.35798 6.89926 9.34508C6.88884 9.33889 6.87778 9.33386 6.86627 9.33008H6.85728L6.39853 9.18108C6.25895 9.13483 6.13202 9.05678 6.02773 8.95308C5.92381 8.84877 5.84547 8.72178 5.79885 8.58208L5.64994 8.12308C5.64189 8.10066 5.62968 8.07996 5.61395 8.06208C5.60517 8.0521 5.59509 8.04336 5.58397 8.03608C5.5548 8.015 5.51999 8.00315 5.48402 8.00208C5.4611 8.00233 5.43841 8.00673 5.41706 8.01508C5.40368 8.02068 5.39094 8.02772 5.37908 8.03608C5.34857 8.05749 5.32551 8.08791 5.31312 8.12308L5.1642 8.58208C5.1414 8.65016 5.11124 8.71555 5.07425 8.77708C5.03596 8.83997 4.9907 8.89834 4.93932 8.95108C4.83709 9.05489 4.71223 9.13361 4.57452 9.18108L4.11876 9.32808ZM2.4986 9.00008C2.43633 9.00026 2.37555 8.98103 2.32469 8.94508C2.27446 8.90941 2.23642 8.85913 2.21575 8.80108L1.96689 8.03608C1.91109 7.86595 1.82658 7.70665 1.71702 7.56508C1.67694 7.513 1.63354 7.46356 1.58709 7.41708C1.41345 7.243 1.20162 7.11186 0.968428 7.03408L0.203844 6.78508C0.144951 6.76449 0.0939418 6.72604 0.0579229 6.67508C0.021432 6.62404 0.00185728 6.56283 0.00195348 6.50008C0.00206578 6.43766 0.0216305 6.37684 0.0579229 6.32608C0.0939418 6.27511 0.144951 6.23666 0.203844 6.21608L0.968428 5.96708C1.19831 5.88798 1.40668 5.75652 1.5771 5.58308C1.74293 5.41481 1.86895 5.21149 1.9459 4.98808L1.9519 4.96908L2.20076 4.20408C2.22134 4.14515 2.25977 4.09412 2.3107 4.05808C2.36171 4.02157 2.42289 4.00198 2.48561 4.00208C2.54833 4.00198 2.6095 4.02157 2.66051 4.05808C2.71144 4.09412 2.74988 4.14515 2.77045 4.20408L3.01932 4.96908C3.04652 5.04439 3.07995 5.11731 3.11926 5.18708C3.19065 5.33423 3.28475 5.46922 3.39811 5.58708C3.57165 5.76033 3.78312 5.89077 4.01577 5.96808L4.78036 6.21708H4.79535C4.85456 6.2381 4.90586 6.27686 4.94227 6.32808C4.97821 6.37896 4.99742 6.43977 4.99724 6.50208C4.99763 6.56472 4.97841 6.62592 4.94227 6.67708C4.90599 6.7282 4.85461 6.76667 4.79535 6.78708L4.03077 7.03608C3.79794 7.11301 3.58639 7.24351 3.4131 7.41708C3.24011 7.59045 3.10975 7.80167 3.03231 8.03408L2.78344 8.79908L2.77645 8.81808C2.76212 8.85042 2.74253 8.88015 2.71848 8.90608C2.70443 8.92013 2.6894 8.93316 2.6735 8.94508C2.62237 8.98123 2.56121 9.00047 2.4986 9.00008Z" fill="#212121"/>
</svg>

<svg viewBox="0 0 20 20" fill="none" xmlns="http://www.w3.org/2000/svg" height="1em" width="1em">
  <path d="M3.759 4H16.49a1.498 1.498 0 0 1 1.511 1.5v9a1.5 1.5 0 0 1-1.5 1.5H3.51a1.499 1.499 0 0 1-1.5-1.5V9.887c.158.07.328.11.5.113.172-.002.342-.037.5-.105V14.5a.5.5 0 0 0 .5.5h2.498v-1.5a1.5 1.5 0 0 1 1.5-1.5h4.997a1.499 1.499 0 0 1 1.5 1.5V15h2.498a.5.5 0 0 0 .5-.5v-9a.5.5 0 0 0-.5-.5H4.309a.569.569 0 0 1-.2-.124.565.565 0 0 1-.138-.225l-.212-.65Zm8.002 2.732A2.5 2.5 0 0 1 9.995 11a2.498 2.498 0 0 1-2.5-2.5 2.5 2.5 0 0 1 2.5-2.5c.662 0 1.298.263 1.766.732ZM4.12 9.328a.185.185 0 0 0-.121.166.18.18 0 0 0 .034.105c.021.03.052.054.087.066l.46.15a.957.957 0 0 1 .598.6l.15.46a.183.183 0 0 0 .166.12.178.178 0 0 0 .166-.12l.15-.46a.942.942 0 0 1 .599-.599l.458-.149a.175.175 0 0 0 .088-.066.177.177 0 0 0-.088-.27h-.009L6.4 9.18a.95.95 0 0 1-.6-.599l-.15-.459a.19.19 0 0 0-.035-.06.18.18 0 0 0-.13-.06.19.19 0 0 0-.105.033.179.179 0 0 0-.066.087l-.149.46a.987.987 0 0 1-.225.368.944.944 0 0 1-.364.23l-.456.147ZM2.499 9a.3.3 0 0 1-.283-.199l-.25-.765a1.568 1.568 0 0 0-.998-1.002l-.764-.249A.3.3 0 0 1 .002 6.5a.3.3 0 0 1 .202-.284l.764-.249a1.57 1.57 0 0 0 .978-.979l.006-.019.249-.765a.3.3 0 0 1 .285-.202.3.3 0 0 1 .284.202l.25.765c.027.075.06.148.1.218.07.147.165.282.278.4.174.173.385.304.618.381l.764.25h.015a.3.3 0 0 1 .202.285.3.3 0 0 1-.202.284l-.764.25a1.568 1.568 0 0 0-.999.997l-.249.765-.007.02a.32.32 0 0 1-.102.126.3.3 0 0 1-.175.055Z" fill="#212121"/>
</svg>
